(Project shield_final_JW_b)
(Created by Estlcam version 11 build 11.119)
(Machining time about 00:05:24 hours)

(Required tools:)
(Plexy Fraeser 1.2mm)

G90
M03 S20000
G00 Z20.0000


(No. 1: Hole 4)
G00 X8.6554 Y8.3240
G00 Z0.5000
G01 Z-1.6000 F100 S20000
G02 X7.8641 Y9.7657 I1.3446 J1.6760 F300
G01 X7.8513 Y10.0063
G02 X10.0200 Y12.1500 I2.1513 J-0.0076
G01 X11.9863 Y12.1498
G02 X11.9800 Y7.8500 I0.0124 J-2.1499
G01 X10.0137 Y7.8502
G02 X8.6554 Y8.3240 I-0.0096 J2.1564
G00 Z20.0000


(No. 2: Hole 5)
G00 X86.9038 Y9.5280 Z20.0000
G00 Z0.5000
G01 Z-1.6000 F100
G01 X86.8641 Y9.7657 F300
G01 X86.8513 Y10.0063
G02 X89.0200 Y12.1500 I2.1513 J-0.0076
G01 X90.9863 Y12.1498
G02 X90.9800 Y7.8500 I0.0124 J-2.1499
G01 X89.0137 Y7.8502
G02 X86.9038 Y9.5280 I-0.0113 J2.1513
G00 Z20.0000


(No. 3: Hole 6)
G00 X146.9034 Y9.5280 Z20.0000
G00 Z0.5000
G01 Z-1.6000 F100
G01 X146.8637 Y9.7657 F300
G01 X146.8509 Y10.0063
G02 X149.0196 Y12.1500 I2.1513 J-0.0076
G01 X150.9860 Y12.1498
G02 X150.9796 Y7.8500 I0.0124 J-2.1499
G01 X149.0133 Y7.8502
G02 X146.9034 Y9.5280 I-0.0113 J2.1513
G00 Z20.0000


(No. 4: Hole 7)
G00 X225.8637 Y9.7657 Z20.0000
G00 Z0.5000
G01 Z-1.6000 F100
G01 X225.8509 Y10.0063 F300
G02 X228.0196 Y12.1500 I2.1513 J-0.0076
G01 X229.9860 Y12.1498
G02 X229.9796 Y7.8500 I0.0124 J-2.1499
G01 X228.0133 Y7.8502
G02 X225.8637 Y9.7657 I-0.0116 J2.1508
G00 Z20.0000


(No. 5: Part 1)
G00 X3.2531 Y1.8253 Z20.0000
G00 Z0.5000
G01 Z-1.6000 F100
G01 X3.3147 Y1.7761 F300
G01 X4.0869 Y1.2034
G01 X4.1530 Y1.1604
G01 X4.9776 Y0.6662
G01 X5.0476 Y0.6298
G01 X5.9166 Y0.2188
G01 X5.9899 Y0.1895
G01 X6.8950 Y-0.1343
G01 X6.9708 Y-0.1563
G01 X7.9033 Y-0.3899
G01 X7.9808 Y-0.4043
G01 X8.9318 Y-0.5454
G01 X9.0104 Y-0.5521
G01 X9.9706 Y-0.5993
G01 X10.0200 Y-0.6000
G01 X229.9996
G01 X231.0092 Y-0.5511
G01 X231.0876 Y-0.5424
G01 X232.0386 Y-0.4014
G01 X232.1157 Y-0.3850
G01 X233.0483 Y-0.1514
G01 X233.1234 Y-0.1276
G01 X234.0286 Y0.1963
G01 X234.1011 Y0.2274
G01 X234.9701 Y0.6384
G01 X235.0392 Y0.6764
G01 X235.8638 Y1.1707
G01 X235.9288 Y1.2153
G01 X236.7010 Y1.7880
G01 X236.7613 Y1.8388
G01 X237.4736 Y2.4844
G01 X237.5287 Y2.5408
G01 X238.1743 Y3.2531
G01 X238.2236 Y3.3147
G01 X238.7963 Y4.0869
G01 X238.8392 Y4.1530
G01 X239.3335 Y4.9776
G01 X239.3698 Y5.0476
G01 X239.7808 Y5.9166
G01 X239.8101 Y5.9899
G01 X240.1340 Y6.8950
G01 X240.1559 Y6.9708
G01 X240.3895 Y7.9033
G01 X240.4039 Y7.9808
G01 X240.5450 Y8.9318
G01 X240.5517 Y9.0104
G01 X240.5989 Y9.9706
G01 X240.5996 Y10.0200
G01 Y190.0000
G01 X240.5207 Y192.8204
G01 X240.2831 Y195.6487
G01 X240.2766 Y195.7019
G03 X238.6265 Y203.9916 I-50.2195 J-5.6871
G01 X238.6111 Y204.0430
G03 X235.5957 Y211.9393 I-48.5574 J-14.0189
G01 X235.5720 Y211.9873
G03 X189.9796 Y240.6000 I-45.5724 J-21.9861
G01 X50.0200
G01 X47.1796 Y240.5211
G01 X47.1261 Y240.5175
G03 X38.7569 Y239.3349 I2.8623 J-50.4594
G01 X38.7047 Y239.3224
G03 X30.6519 Y236.7545 I11.2742 J-49.2670
G01 X30.6025 Y236.7335
G03 X-0.5192 Y192.8540 I19.3987 J-46.7349
G01 X-0.6000 Y189.9800
G01 Y10.0000
G01 X-0.5511 Y8.9904
G01 X-0.5424 Y8.9120
G01 X-0.4014 Y7.9611
G01 X-0.3850 Y7.8839
G01 X-0.1514 Y6.9514
G01 X-0.1276 Y6.8762
G01 X0.1963 Y5.9710
G01 X0.2274 Y5.8986
G01 X0.6384 Y5.0295
G01 X0.6764 Y4.9604
G01 X1.1707 Y4.1358
G01 X1.2153 Y4.0708
G01 X1.7880 Y3.2986
G01 X1.8388 Y3.2383
G01 X2.4844 Y2.5260
G01 X2.5408 Y2.4709
G01 X3.2531 Y1.8253
G00 Z20.0000
G00 X0.0000 Y0.0000

M05
M30
