(Project shield_jw_9holes_2x90mm_Chantal)
(Created by Estlcam version 11 build 11.225)
(Machining time about 00:13:39 hours)

(Required tools:)
(Plexy Fraeser 1.2mm)

G90
M03 S20000
G00 Z20.0000


(No. 1: Ausschnitt 1)
G00 X11.9861 Y93.1773
G00 Z0.5000
G01 Z0.0000 F100 S20000
G01 Z-1.5000
G02 X7.8500 Y94.0084 I-1.9862 J0.8229 F300
G01 Y95.9916
G02 X12.1500 I2.1500 J0.0082
G01 Y94.0084
G02 X11.9861 Y93.1773 I-2.1554 J-0.0067
G00 Z20.0000


(No. 2: Ausschnitt 2)
G00 X11.7533 Y171.7560 Z20.0000
G00 Z0.5000
G01 Z0.0000 F100
G01 Z-1.5000
G02 X7.8500 Y173.0084 I-1.7533 J1.2442 F300
G01 Y174.9916
G02 X12.1500 I2.1500 J0.0082
G01 Y173.0084
G02 X11.7533 Y171.7560 I-2.1522 J-0.0073
G00 Z20.0000


(No. 3: Ausschnitt 3)
G00 X11.5201 Y231.4799 Z20.0000
G00 Z0.5000
G01 Z0.0000 F100
G01 Z-1.5000
G02 X7.8500 Y233.0084 I-1.5202 J1.5204 F300
G01 Y234.9916
G02 X12.1500 I2.1500 J0.0082
G01 Y233.0084
G02 X11.5201 Y231.4799 I-2.1512 J-0.0076
G00 Z20.0000


(No. 4: Ausschnitt 4)
G00 X11.2440 Y310.2467 Z20.0000
G00 Z0.5000
G01 Z0.0000 F100
G01 Z-1.5000
G02 X7.8500 Y312.0084 I-1.2440 J1.7535 F300
G01 Y313.9916
G02 X12.1500 I2.1500 J0.0082
G01 Y312.0084
G02 X11.2440 Y310.2467 I-2.1508 J-0.0077
G00 Z20.0000


(No. 5: Ausschnitt 5)
G00 X234.0000 Y290.8502 Z20.0000
G00 Z0.5000
G01 Z0.0000 F100
G01 Z-1.5000
G02 X231.8500 Y293.0084 I0.0002 J2.1502 F300
G01 Y294.9916
G02 X236.1500 I2.1500 J0.0082
G01 Y293.0084
G02 X234.0000 Y290.8502 I-2.1502 J-0.0080
G00 Z20.0000


(No. 6: Ausschnitt 6)
G00 X234.0000 Y245.8502 Z20.0000
G00 Z0.5000
G01 Z0.0000 F100
G01 Z-1.5000
G02 X231.8500 Y248.0084 I0.0002 J2.1502 F300
G01 Y249.9916
G02 X236.1500 I2.1500 J0.0082
G01 Y248.0084
G02 X234.0000 Y245.8502 I-2.1502 J-0.0080
G00 Z20.0000


(No. 7: Ausschnitt 7)
G00 X234.1205 Y200.8536 Z20.0000
G00 Z0.5000
G01 Z0.0000 F100
G01 Z-1.5000
G02 X231.8500 Y203.0084 I-0.1204 J2.1468 F300
G01 Y204.9916
G02 X236.1500 I2.1500 J0.0082
G01 Y203.0084
G02 X234.1205 Y200.8536 I-2.1502 J-0.0080
G00 Z20.0000


(No. 8: Ausschnitt 8)
G00 X234.1205 Y155.8536 Z20.0000
G00 Z0.5000
G01 Z0.0000 F100
G01 Z-1.5000
G02 X231.8500 Y158.0084 I-0.1204 J2.1468 F300
G01 Y159.9916
G02 X236.1500 I2.1500 J0.0082
G01 Y158.0084
G02 X234.1205 Y155.8536 I-2.1502 J-0.0080
G00 Z20.0000


(No. 9: Ausschnitt 9)
G00 X234.1205 Y110.8536 Z20.0000
G00 Z0.5000
G01 Z0.0000 F100
G01 Z-1.5000
G02 X231.8500 Y113.0084 I-0.1204 J2.1468 F300
G01 Y114.9916
G02 X236.1500 I2.1500 J0.0082
G01 Y113.0084
G02 X234.1205 Y110.8536 I-2.1502 J-0.0080
G00 Z20.0000


(No. 10: Gravur 1)
G00 X14.4000 Y1.0000 Z20.0000
G00 Z0.5000
G01 Z0.0000 F100
G01 Z-1.5000
G01 Y3.4000 F300
G01 X0.0000
G02 X-0.6000 Y4.0000 I0.0000 J0.6000
G01 Y404.0000
G02 X0.0000 Y404.6000 I0.6000 J0.0000
G01 X14.4000
G01 Y407.0000
G00 Z20.0000


(No. 11: Gravur 2)
G00 X240.6000 Y1.0000 Z20.0000
G00 Z0.5000
G01 Z0.0000 F100
G01 Z-1.5000
G01 Y404.0000 F300
G00 Z20.0000
G00 X0.0000 Y0.0000

M05
M30
