(Project shield_protojw02_B2x29)
(Created by Estlcam version 11 build 11.224)
(Machining time about 00:06:43 hours)

(Required tools:)
(Plexy Fraeser 1.2mm)

G90
M03 S20000
G00 Z10.0000


(No. 1: Ausschnitt 1)
G00 X17.6194 Y39.1399
G00 Z0.5000
G01 Z0.0000 F100 S20000
G01 Z-2.0000
G02 X13.3500 Y39.5084 I-2.1195 J0.3603 F300
G01 Y41.4916
G02 X17.6500 I2.1500 J0.0082
G01 Y39.5084
G02 X17.6194 Y39.1399 I-2.1754 J-0.0048
G00 Z10.0000


(No. 2: Ausschnitt 2)
G00 X17.4369 Y117.5673 Z10.0000
G00 Z0.5000
G01 Z0.0000 F100
G01 Z-2.0000
G02 X13.3500 Y118.5084 I-1.9370 J0.9329 F300
G01 Y120.4916
G02 X17.6500 I2.1500 J0.0082
G01 Y118.5084
G02 X17.4369 Y117.5673 I-2.1547 J-0.0068
G00 Z10.0000


(No. 3: Ausschnitt 3)
G00 X17.1808 Y177.1596 Z10.0000
G00 Z0.5000
G01 Z0.0000 F100
G01 Z-2.0000
G02 X13.3500 Y178.5084 I-1.6808 J1.3406 F300
G01 Y180.4916
G02 X17.6500 I2.1500 J0.0082
G01 Y178.5084
G02 X17.1808 Y177.1596 I-2.1520 J-0.0073
G00 Z10.0000


(No. 4: Ausschnitt 4)
G00 X16.9325 Y255.8970 Z10.0000
G00 Z0.5000
G01 Z0.0000 F100
G01 Z-2.0000
G02 X13.3500 Y257.5084 I-1.4325 J1.6032 F300
G01 Y259.4916
G02 X17.6500 I2.1500 J0.0082
G01 Y257.5084
G02 X16.9325 Y255.8970 I-2.1511 J-0.0076
G00 Z10.0000


(No. 5: Teil 1)
G00 X231.2796 Y14.7204 Z10.0000
G00 Z0.5000
G01 Z0.0000 F100
G01 Z-2.0000
G03 X246.1000 Y50.4961 I-35.7793 J35.7794 F300
G01 Y248.5039
G03 X195.5039 Y299.1000 I-50.5999 J-0.0038
G01 X2.4902
G03 X-0.1000 Y296.5098 I0.0091 J-2.5993
G01 Y2.4902
G03 X2.4902 Y-0.1000 I2.5993 J0.0091
G01 X195.5039
G03 X231.2796 Y14.7204 I-0.0037 J50.5997
G00 Z10.0000
G00 X0.0000 Y0.0000

M05
M30
